icons/yaml-light.svg

<svg width="256" height="256" viewBox="0 0 256 256" fill="none" xmlns="http://www.w3.org/2000/svg">
<path d="M196 0H60C26.8629 0 0 26.8629 0 60V196C0 229.137 26.8629 256 60 256H196C229.137 256 256 229.137 256 196V60C256 26.8629 229.137 0 196 0Z" fill="#F4F2ED"/>
<g clip-path="url(#clip0_497_59)">
<path d="M120.015 29L81.4595 86.9191V123.635H57.828V86.9191L21 29H47.5601L70.9783 66.2931L94.5884 29H120.015Z" fill="black"/>
<path d="M159.698 102.812H116.924L108.225 123.857H89.2837L129.336 29.2212H148.71L187.137 123.857H166.897L159.697 102.812H159.698ZM152.593 83.9177L139.48 49.1892L124.851 83.9177H152.593Z" fill="#CB171E"/>
<path d="M57.8276 134.249V227H77.6912V163.021L98.4794 206.025H114.115L135.613 161.51V226.981H154.669V134.249H128.65L105.564 176.195L83.5772 134.249H57.8276Z" fill="black"/>
<path d="M236 206.844H187.137V134.227H166.898V226.579H236V206.844V206.844Z" fill="black"/>
</g>
<defs>
<clipPath id="clip0_497_59">
<rect width="215" height="198" fill="white" transform="translate(21 29)"/>
</clipPath>
</defs>
</svg>

<svg xmlns="http://www.w3.org/2000/svg" width="256" height="256" fill="none"><path fill="#F4F2ED" d="M196 0H60C26.863 0 0 26.863 0 60v136c0 33.137 26.863 60 60 60h136c33.137 0 60-26.863 60-60V60c0-33.137-26.863-60-60-60"/><g clip-path="url(#clip0_497_59)"><path fill="#000" d="M120.015 29 81.46 86.92v36.715H57.828V86.919L21 29h26.56l23.418 37.293L94.588 29z"/><path fill="#CB171E" d="M159.698 102.812h-42.774l-8.699 21.045H89.284l40.052-94.636h19.374l38.427 94.636h-20.24l-7.2-21.045zm-7.105-18.894L139.48 49.189l-14.629 34.729z"/><path fill="#000" d="M57.828 134.249V227H77.69v-63.979l20.788 43.004h15.636l21.498-44.515v65.471h19.056v-92.732H128.65l-23.086 41.946-21.987-41.946zM236 206.844h-48.863v-72.617h-20.239v92.352H236z"/></g><defs><clipPath id="clip0_497_59"><path fill="#fff" d="M21 29h215v198H21z"/></clipPath></defs></svg>
